X: 25
T:John Ryan's Polka
M:2/4
L:1/8
R:Polka
K:D
dd B/2c/2d/2B/2|AF AF|dd B/2c/2d/2B/2|AF ED|!
dd B/2c/2d/2B/2|AF Ad/2e/2|fd ec|1d2 d2:|2d2 d>e|!
|:fd de/2f/2|gf ed/2e/2|fd Ad|fd/2f/2 a>g|!
fd de/2f/2|gf ed/2e/2|fd ec|1d2 d>e:|2d2 d2|]!
